!!!OTL: Oh Where, Oh Where Has My Little Dog Gone
!!!COM: unknown
!!!ODT: unknown
!!!YOR: The Folksong Fake Book
!!!YOY: 2000
!!!AST: Children's song
!!!YEC: Brian Luke, 2001
**kern	**harm
*k[b-]	*k[b-]
*M3/8	*M3/8
*F:	*F:
*>A	*>A
8a	.
=1	=1
4cc	I
8a	.
=2	=2
8f	.
8e	.
8f	.
=3	=3
8g	V7
8g	.
8e	.
=4	=4
4c	.
*>B	*>B
8cc	.
=5	=5
4dd	.
8cc	.
=6	=6
8b-	.
8a	.
8g	.
=7	=7
[4.cc	I;
=8	=8
4cc]	V7
*>A'	*>A'
16a	.
16b-	.
=9	=9
4cc	I
8a	.
=10	=10
8f	.
8e	.
8f	.
=11	=11
4g	V7
8e	.
=12	=12
4c	.
*>B'	*>B'
8cc	.
=13	=13
4dd	.
8cc	.
=14	=14
8b-	.
8a	.
8g	.
=15	=15
[4.f	I;
=16	=16
4f]	.
*-	*-
